packages/core/src/svgs/aa.svg

<svg width="24" height="24" viewBox="0 0 24 24" fill="none" xmlns="http://www.w3.org/2000/svg">
<g clip-path="url(#clip0_31_5502)">
<path d="M0 0H24V24H0V0Z" fill="#181B1E"/>
<path d="M5.27578 10.7143L6.37721 9L6.52721 9.3L6.75007 9L9.85721 15H7.6715C7.59864 15.0086 7.42293 14.97 7.34578 14.7257C7.28578 14.5371 6.48864 12.9471 5.8415 11.6786C5.77293 11.55 5.67007 11.4471 5.55436 11.3871C5.38293 11.3957 5.21578 11.4729 5.10007 11.6229L4.32864 12.72H5.31007C5.99578 12.72 6.59578 13.1871 6.59578 13.86C6.59578 14.5329 5.99578 15 5.31007 15H2.2415L3.67293 12.8571H2.88436C2.2415 12.8571 1.71436 12.4286 1.71436 11.7857C1.71436 11.1429 2.23721 10.7143 2.88436 10.7143H5.27578ZM5.49864 14.8029C5.94864 14.6914 6.42864 14.34 6.42864 13.86C6.42864 13.38 5.94864 13.0286 5.49864 12.9171C5.65333 13.021 5.78008 13.1614 5.86773 13.3258C5.95537 13.4902 6.00121 13.6737 6.00121 13.86C6.00121 14.0463 5.95537 14.2298 5.86773 14.3942C5.78008 14.5586 5.65333 14.699 5.49864 14.8029ZM3.85721 12.72H4.06721L4.96721 11.5286C5.04436 11.43 5.13864 11.3571 5.23721 11.3057C5.12824 11.3025 5.02008 11.3253 4.9217 11.3723C4.82331 11.4192 4.73754 11.489 4.6715 11.5757L4.21293 12.18L3.85721 12.72ZM9.28293 14.8371H9.59578L6.72436 9.31714L6.61293 9.47143L9.28293 14.8371ZM11.1429 11.3829V12.6171H13.4572C13.7444 12.7029 13.9501 12.9814 13.9501 13.2857C13.9501 13.6586 13.6329 13.9543 13.2386 13.9543H10.2858V15H13.6029C14.6401 15 15.4286 14.3571 15.4286 13.3714C15.4286 12.6943 14.9786 12.3171 14.6658 12C14.9786 11.6829 15.4286 11.4 15.4286 10.6886C15.4286 9.70286 14.6401 9 13.6029 9H10.2858V10.0457H13.2386C13.6329 10.0457 13.9501 10.41 13.9501 10.7829C13.9501 11.0871 13.7444 11.2971 13.4529 11.3829H11.1429ZM14.3915 12C14.7772 12.3943 15.2315 12.7714 15.2315 13.3714C15.2315 14.2714 14.4472 14.8114 13.6029 14.8114H10.4829V14.1429H13.2386C13.7444 14.1429 14.1515 13.7657 14.1515 13.2857C14.1515 12.8829 13.9286 12.4286 13.4872 12.4286H11.3572V11.5714H13.4872C13.9286 11.5714 14.1515 11.1857 14.1515 10.7829C14.1472 10.5409 14.0501 10.3098 13.8801 10.1375C13.7102 9.96519 13.4805 9.86481 13.2386 9.85714H10.4829V9.18857H13.6029C14.5372 9.18857 15.2315 9.81429 15.2315 10.6886C15.2315 11.2886 14.7729 11.6143 14.3915 12ZM16.2858 10.7829C16.2858 9.79714 17.1344 9 18.1801 9H21.8572V10.0714H18.7201C18.3215 10.0714 18.0001 10.3414 18.0001 10.7143C18.0001 11.0143 18.2144 11.2714 18.5015 11.3571H20.3915C20.8873 11.3593 21.3628 11.5548 21.7166 11.9022C22.0704 12.2496 22.2746 12.7214 22.2858 13.2171C22.2858 14.2029 21.4372 15 20.3915 15H16.7144V13.9286H19.8515C20.2501 13.9286 20.5715 13.6586 20.5715 13.2857C20.5715 12.9857 20.3572 12.7286 20.0701 12.6429H18.1801C17.6842 12.6407 17.2088 12.4452 16.855 12.0978C16.5012 11.7504 16.2969 11.2786 16.2858 10.7829Z" fill="#7AEEAD"/>
</g>
<defs>
<clipPath id="clip0_31_5502">
<rect width="24" height="24" fill="white"/>
</clipPath>
</defs>
</svg>

<svg xmlns="http://www.w3.org/2000/svg" width="24" height="24" fill="none" viewBox="0 0 24 24"><g clip-path="url(#a)"><path fill="#181B1E" d="M0 0h24v24H0z"/><path fill="#7AEEAD" d="M5.276 10.714 6.377 9l.15.3.223-.3 3.107 6H7.672c-.073.009-.25-.03-.326-.274-.06-.189-.857-1.779-1.505-3.047a.7.7 0 0 0-.287-.292.6.6 0 0 0-.454.236L4.33 12.72h.981c.686 0 1.286.467 1.286 1.14S5.996 15 5.31 15H2.242l1.43-2.143h-.788c-.643 0-1.17-.428-1.17-1.071s.523-1.072 1.17-1.072zm.223 4.089c.45-.112.93-.463.93-.943s-.48-.831-.93-.943a1.136 1.136 0 0 1 0 1.886M3.857 12.72h.21l.9-1.191a.8.8 0 0 1 .27-.223.69.69 0 0 0-.566.27l-.458.604zm5.426 2.117h.313l-2.872-5.52-.111.154zm1.86-3.454v1.234h2.314a.705.705 0 0 1 .493.669c0 .373-.317.668-.711.668h-2.953V15h3.317c1.037 0 1.826-.643 1.826-1.629 0-.677-.45-1.054-.763-1.371.313-.317.763-.6.763-1.311 0-.986-.789-1.689-1.826-1.689h-3.317v1.046h2.953c.394 0 .711.364.711.737 0 .304-.206.514-.497.6zm3.249.617c.385.394.84.771.84 1.371 0 .9-.785 1.44-1.63 1.44h-3.12v-.668h2.757c.505 0 .912-.377.912-.857 0-.403-.222-.857-.664-.857h-2.13v-.858h2.13c.442 0 .665-.385.665-.788a.943.943 0 0 0-.913-.926h-2.756V9.19h3.12c.934 0 1.629.625 1.629 1.5 0 .6-.46.925-.84 1.311m1.894-1.217c0-.986.848-1.783 1.894-1.783h3.677v1.071H18.72c-.398 0-.72.27-.72.643 0 .3.214.557.502.643h1.89a1.903 1.903 0 0 1 1.894 1.86c0 .986-.849 1.783-1.895 1.783h-3.677v-1.071h3.138c.398 0 .72-.27.72-.643 0-.3-.215-.557-.502-.643h-1.89a1.903 1.903 0 0 1-1.894-1.86"/></g><defs><clipPath id="a"><path fill="#fff" d="M0 0h24v24H0z"/></clipPath></defs></svg>
